X: 14906
T: Gates Of Mullagh, The
R: reel
M: 4/4
K: Gmajor
GFGB dBGB|eBdB cBAF|D3E FGAB|cAed cAFA|
Gggf gdBd|eBdB cBAc|Bg~g2 bgag|1 fdcA BGGF:|2 fdcA G4||
|:Bdge dB~B2|cBAG FADF|GABG Aaag|fgag fdcA|
(3Bcd ge dBGB|cBAG FADC|B,DGB Ac~c2|1 dBcA BGGA:|2 dBcA DBBA||

